resources/svg/major-detailed-pop-up.svg

<svg xmlns="http://www.w3.org/2000/svg" viewBox="0 0 20 20" fill="currentColor"><path d="M3.1 3h1v-2h-1.5c-.8 0-1.5.7-1.5 1.5v1.5h2v-1zm6 16h-3v-2h3v2zm2 0h3v-2h-3v2zm-8-2v-1h-2v1.5c0 .8.7 1.5 1.5 1.5h1.5v-2h-1zm13 0h1v-1h2v1.5c0 .8-.7 1.5-1.5 1.5h-1.5v-2zm-15-8v-3h2v3h-2zm0 2v3h2v-3h-2z"/><path fill-rule="evenodd" d="M9 3v8h8v-8h-8zm-.5-2c-.8 0-1.5.7-1.5 1.5v9c0 .8.7 1.5 1.5 1.5h9c.8 0 1.5-.7 1.5-1.5v-9c0-.8-.7-1.5-1.5-1.5h-9z"/></svg>

<svg xmlns="http://www.w3.org/2000/svg" viewBox="0 0 20 20" fill="currentColor"><path d="M3.1 3h1V1H2.6c-.8 0-1.5.7-1.5 1.5V4h2V3zM9.1 19h-3v-2h3v2zM11.1 19h3v-2h-3v2zM3.1 17v-1h-2v1.5c0 .8.7 1.5 1.5 1.5h1.5v-2h-1zM16.1 17h1v-1h2v1.5c0 .8-.7 1.5-1.5 1.5h-1.5v-2zM1.1 9V6h2v3h-2zM1.1 11v3h2v-3h-2z" fill="#5C5F62"/><path fill-rule="evenodd" d="M9 3v8h8V3H9zm-.5-2C7.7 1 7 1.7 7 2.5v9c0 .8.7 1.5 1.5 1.5h9c.8 0 1.5-.7 1.5-1.5v-9c0-.8-.7-1.5-1.5-1.5h-9z" fill="#5C5F62"/></svg>
